X:107
T:Highland Reel. JMT.107
T:Johnny McGill. JMT.107
T:Come Under My Plaidie. JMT.107
M:6/8
L:1/8
Q:3/8=120
S:J.Moore,Tyneside,1841.(75b)
R:.Jig
O:England
A:Northumbria
N:A.K.A. “The Black Rogue
Z:vmp.Chris Partington
K:G
|:g|dBB BAG|dBBB2g|dBB BAB|GEEE2:|!
B|gfg aga|bge dcB|gfg aga|bge ega|!
bag agf|gfe dgf|dcc cdc|BGE”DC”E2|]

